Yaru++/apps/scalable/error-app.svg

<svg height="256" width="256" xmlns="http://www.w3.org/2000/svg" xmlns:xlink="http://www.w3.org/1999/xlink">
  <linearGradient id="linearGradient11065" gradientUnits="userSpaceOnUse" x1="80.752001" x2="176.752001" y1="11.248002" y2="235.248002">
    <stop offset="0" stop-color="#da1636"/>
    <stop offset="1" stop-color="#f22c42"/>
  </linearGradient>
  <filter id="filter11191" color-interpolation-filters="sRGB" height="1.024" width="1.024" x="-.01" y="-.01">
    <feGaussianBlur stdDeviation="1.12"/>
  </filter>
  <filter id="filter11210" color-interpolation-filters="sRGB" height="1.096" width="1.096" x="-.05" y="-.05">
    <feGaussianBlur stdDeviation="4.48"/>
  </filter>
  <circle cx="128.752" cy="127.248" filter="url(#filter11210)" opacity=".1" r="112"/>
  <circle cx="128.752" cy="125.248" filter="url(#filter11191)" opacity=".1" r="112"/>
  <circle cx="128.752" cy="123.248" opacity=".1" r="114"/>
  <circle cx="128.752" cy="123.248" fill="url(#linearGradient11065)" r="112"/>
  <g fill="#fff">
    <path d="m16.752001 132.94391a112.5345 112.53445 0 0 0 111.977529 102.30409 112.5345 112.53445 0 0 0 112.02247-102.30409z" opacity=".05"/>
    <path d="m159.13404 123.36543q0 8.77054-.40793 16.52125-.20397 7.54674-.81586 14.68555-.6119 7.13881-1.42777 13.86969-.61189 6.73088-1.42776 13.46176h-6.11898q-1.83569-13.66573-3.05949-27.33145-1.01983-13.66572-1.01983-31.2068v-39.365436h14.27762zm4.07932 93.21247q0 4.69121-3.05949 7.95467-2.85552 3.26346-8.15864 3.26346-5.30311 0-8.3626-3.26346-2.85553-3.26346-2.85553-7.95467 0-4.69122 2.85553-7.95468 3.05949-3.26345 8.3626-3.26345 5.30312 0 8.15864 3.26345 3.05949 3.26346 3.05949 7.95468z" transform="translate(-23.247999 -32.751992)"/>
    <path d="m128.752 11.248003a112 112 0 0 0 -111.999999 111.999997 112 112 0 0 0 .04102 1.16992 112 112 0 0 1 111.958979-111.169917 112 112 0 0 1 111.95898 110.830077 112 112 0 0 0 .041-.83008 112 112 0 0 0 -112-111.999997z" opacity=".3"/>
  </g>
  <path d="m128.752 235.248a112 112 0 0 1 -111.999999-112 112 112 0 0 1 .04102-1.16992 112 112 0 0 0 111.958979 111.16992 112 112 0 0 0 111.95898-110.83008 112 112 0 0 1 .041.83008 112 112 0 0 1 -112 112z" opacity=".2"/>
</svg>

<svg xmlns="http://www.w3.org/2000/svg" xmlns:xlink="http://www.w3.org/1999/xlink" width="256" height="256" version="1.0">
 <defs>
  <linearGradient id="a">
   <stop id="stop2" offset="0" stop-color="#68676b"/>
   <stop id="stop4" offset=".8" stop-color="#424048"/>
   <stop id="stop6" offset="1" stop-color="#241f31"/>
  </linearGradient>
  <radialGradient id="d" cx="279.422" cy="446.483" r="224" fx="279.422" fy="446.483" gradientTransform="matrix(1.34416,6e-4,-6.2e-4,1.38763,-121.22,-718.103)" gradientUnits="userSpaceOnUse" xlink:href="#a"/>
  <linearGradient id="e" x1="43.844" x2="-60" y1="234" y2="234" gradientTransform="matrix(1.0015,0,0,0.99993,72.09,56.015)" gradientUnits="userSpaceOnUse" xlink:href="#b"/>
  <linearGradient id="b">
   <stop id="stop11" offset="0" stop-color="#d5d3cf"/>
   <stop id="stop13" offset=".038" stop-color="#e3e2df"/>
   <stop id="stop15" offset=".077" stop-color="#c0bfbc"/>
   <stop id="stop17" offset=".923" stop-color="#c0bfbc"/>
   <stop id="stop19" offset=".962" stop-color="#e3e2df"/>
   <stop id="stop21" offset="1" stop-color="#d5d3cf"/>
  </linearGradient>
  <filter id="filter4569" width="1.023" height="1.025" x="-.01" y="-.01" style="color-interpolation-filters:sRGB">
   <feGaussianBlur id="feGaussianBlur22" stdDeviation="1.16"/>
  </filter>
  <filter id="filter938" width="1.046" height="1.05" x="-.02" y="-.03" style="color-interpolation-filters:sRGB">
   <feGaussianBlur id="feGaussianBlur19" stdDeviation="2.32"/>
  </filter>
  <linearGradient id="linearGradient878" x1="32" x2="272" y1="156" y2="156" gradientTransform="matrix(0,0.26458333,-0.26458333,0,74.498196,223.03096)" gradientUnits="userSpaceOnUse">
   <stop style="stop-color:#da1636" id="stop14" offset="0"/>
   <stop style="stop-color:#f22c42" id="stop16" offset="1"/>
  </linearGradient>
  <linearGradient id="linearGradient1108" x1="296" x2="296" y1="-212" y2="236" gradientUnits="userSpaceOnUse">
   <stop style="stop-color:#ffffff" id="stop2-3" offset="0"/>
   <stop style="stop-color:#ffffff;stop-opacity:.09803922" id="stop4-6" offset=".125"/>
   <stop style="stop-color:#000000;stop-opacity:.09803922" id="stop6-7" offset=".925"/>
   <stop style="stop-color:#000000;stop-opacity:.49803922" id="stop8" offset="1"/>
  </linearGradient>
  <clipPath id="clipPath1082-3-367">
   <path style="fill:#8c59d9" d="M 361.9375,-212 C 507.2348,-212 528,-191.28677 528,-46.125 V 70.125 C 528,215.28618 507.2348,236 361.9375,236 H 214.0625 C 68.7652,236 48,215.28618 48,70.125 V -46.125 C 48,-191.28677 68.7652,-212 214.0625,-212 Z"/>
  </clipPath>
  <linearGradient id="linearGradient11065" x1="104" x2="200" y1="44" y2="268" gradientTransform="translate(-23.247999,-32.751998)" gradientUnits="userSpaceOnUse" xlink:href="#linearGradient876-3"/>
  <linearGradient id="linearGradient876-3">
   <stop style="stop-color:#da1636" id="stop872-3" offset="0"/>
   <stop style="stop-color:#f22c42" id="stop874-5" offset="1"/>
  </linearGradient>
  <filter style="color-interpolation-filters:sRGB" id="filter11191" width="1.024" height="1.024" x="-.01" y="-.01">
   <feGaussianBlur id="feGaussianBlur11193" stdDeviation="1.12"/>
  </filter>
  <filter style="color-interpolation-filters:sRGB" id="filter11210" width="1.096" height="1.096" x="-.05" y="-.05">
   <feGaussianBlur id="feGaussianBlur11212" stdDeviation="4.48"/>
  </filter>
 </defs>
 <circle style="opacity:0.1;filter:url(#filter11210)" cx="128.752" cy="127.248" r="112"/>
 <circle style="opacity:0.1;filter:url(#filter11191)" cx="128.752" cy="125.248" r="112"/>
 <circle style="opacity:0.1" cx="128.752" cy="123.248" r="114"/>
 <circle style="fill:url(#linearGradient11065)" cx="128.752" cy="123.248" r="112"/>
 <path style="opacity:0.05;fill:#ffffff" d="M 16.752001,132.94391 A 112.5345,112.53445 0 0 0 128.72953,235.248 112.5345,112.53445 0 0 0 240.752,132.94391 Z"/>
 <g style="font-size:203.96600342px;line-height:1000%;text-align:center;letter-spacing:0px;word-spacing:0px;text-anchor:middle;fill:#ffffff;enable-background:new" id="text913" transform="translate(-23.247999,-32.751992)">
  <path style="fill:#ffffff" d="m 159.13404,123.36543 q 0,8.77054 -0.40793,16.52125 -0.20397,7.54674 -0.81586,14.68555 -0.6119,7.13881 -1.42777,13.86969 -0.61189,6.73088 -1.42776,13.46176 h -6.11898 q -1.83569,-13.66573 -3.05949,-27.33145 -1.01983,-13.66572 -1.01983,-31.2068 V 83.999994 h 14.27762 z m 4.07932,93.21247 q 0,4.69121 -3.05949,7.95467 -2.85552,3.26346 -8.15864,3.26346 -5.30311,0 -8.3626,-3.26346 -2.85553,-3.26346 -2.85553,-7.95467 0,-4.69122 2.85553,-7.95468 3.05949,-3.26345 8.3626,-3.26345 5.30312,0 8.15864,3.26345 3.05949,3.26346 3.05949,7.95468 z"/>
 </g>
 <path style="opacity:0.3;fill:#ffffff" d="M 128.752,11.248003 A 112,112 0 0 0 16.752001,123.248 112,112 0 0 0 16.793021,124.41792 112,112 0 0 1 128.752,13.248003 112,112 0 0 1 240.71098,124.07808 a 112,112 0 0 0 0.041,-0.83008 112,112 0 0 0 -112,-111.999997 z"/>
 <path style="opacity:0.2" d="m 128.752,235.248 a 112,112 0 0 1 -111.999999,-112 112,112 0 0 1 0.04102,-1.16992 A 112,112 0 0 0 128.752,233.248 112,112 0 0 0 240.71098,122.41792 a 112,112 0 0 1 0.041,0.83008 112,112 0 0 1 -112,112 z"/>
</svg>
